X:1
T:Lindahls polka e bror Dahlgren
C:Bror Dahlgren
R:Polka
Z:Patrik Mnsson, 2008-10-06
O:Skne
B:Omtyckta Sknska Allspelsltar
M:2/4
L:1/8
K:D
|: AD FA | BG G1/2F1/2G | cc E1/2F1/2G1/2A1/2 | BB A2 | AD FA | BG G1/2F1/2G | cc A1/2A1/2B1/2c1/2 | dd d2 :|
|: Af f1/2e1/2f | gg B2 | Ag g1/2f1/2g | aa f2 | Af f1/2e1/2f | gg B2 | Ac c1/2B1/2c | ed d2 :|
